assets/images/icons/src/file-word-o.svg

<?xml version="1.0" encoding="utf-8"?>
<!-- Generated by IcoMoon.io -->
<!DOCTYPE svg PUBLIC "-//W3C//DTD SVG 1.1//EN" "http://www.w3.org/Graphics/SVG/1.1/DTD/svg11.dtd">
<svg version="1.1" xmlns="http://www.w3.org/2000/svg" xmlns:xlink="http://www.w3.org/1999/xlink" width="12" height="14" viewBox="0 0 12 14">
<path fill="#444444" d="M11.469 2.969q0.219 0.219 0.375 0.594t0.156 0.688v9q0 0.312-0.219 0.531t-0.531 0.219h-10.5q-0.312 0-0.531-0.219t-0.219-0.531v-12.5q0-0.312 0.219-0.531t0.531-0.219h7q0.312 0 0.688 0.156t0.594 0.375zM8 1.062v2.937h2.937q-0.078-0.227-0.172-0.32l-2.445-2.445q-0.094-0.094-0.32-0.172zM11 13v-8h-3.25q-0.312 0-0.531-0.219t-0.219-0.531v-3.25h-6v12h10zM1.82 6v0.836h0.547l1.281 5.164h1.242l1-3.789q0.055-0.156 0.078-0.359 0.016-0.125 0.016-0.187h0.031l0.023 0.187q0.008 0.023 0.027 0.156t0.043 0.203l1 3.789h1.242l1.281-5.164h0.547v-0.836h-2.344v0.836h0.703l-0.773 3.422q-0.039 0.156-0.055 0.359l-0.016 0.164h-0.031l-0.023-0.164q-0.008-0.039-0.031-0.164t-0.039-0.195l-1.125-4.258h-0.891l-1.125 4.258q-0.016 0.070-0.035 0.191t-0.027 0.168l-0.031 0.164h-0.031l-0.016-0.164q-0.016-0.203-0.055-0.359l-0.773-3.422h0.703v-0.836h-2.344z"></path>
</svg>

<svg xmlns="http://www.w3.org/2000/svg" width="12" height="14" viewBox="0 0 12 14"><path fill="#444" d="M11.469 2.969q.219.219.375.594t.156.688v9q0 .312-.219.531t-.531.219H.75q-.312 0-.531-.219T0 13.251V.751Q0 .439.219.22T.75.001h7q.312 0 .688.156t.594.375zM8 1.062v2.937h2.937q-.078-.227-.172-.32L8.32 1.234Q8.226 1.14 8 1.062zM11 13V5H7.75q-.312 0-.531-.219T7 4.25V1H1v12h10zM1.82 6v.836h.547L3.648 12H4.89l1-3.789q.055-.156.078-.359.016-.125.016-.187h.031l.023.187q.008.023.027.156t.043.203l1 3.789H8.35l1.281-5.164h.547V6H7.834v.836h.703l-.773 3.422q-.039.156-.055.359l-.016.164h-.031l-.023-.164-.031-.164q-.023-.125-.039-.195L6.444 6h-.891l-1.125 4.258q-.016.07-.035.191t-.027.168l-.031.164h-.031l-.016-.164q-.016-.203-.055-.359L3.46 6.836h.703V6H1.819z"/></svg>
